svg/icon.svg

<?xml version="1.0" encoding="UTF-8" standalone="no"?>
<svg
   xmlns:dc="http://purl.org/dc/elements/1.1/"
   xmlns:cc="http://creativecommons.org/ns#"
   xmlns:rdf="http://www.w3.org/1999/02/22-rdf-syntax-ns#"
   xmlns:svg="http://www.w3.org/2000/svg"
   xmlns="http://www.w3.org/2000/svg"
   xmlns:sodipodi="http://sodipodi.sourceforge.net/DTD/sodipodi-0.dtd"
   xmlns:inkscape="http://www.inkscape.org/namespaces/inkscape"
   width="64"
   height="64"
   viewBox="0 0 16.933333 16.933334"
   version="1.1"
   id="svg8"
   inkscape:version="1.0 (4035a4fb49, 2020-05-01)"
   sodipodi:docname="02_dropdown.svg"
   inkscape:export-filename="D:\Downloads\icon16.png"
   inkscape:export-xdpi="24"
   inkscape:export-ydpi="24">
  <defs
     id="defs2">
    <rect
       id="rect836"
       height="52.866971"
       width="92.568627"
       y="-14.399564"
       x="-75.80342" />
    <rect
       x="0.01323625"
       y="0.01323625"
       width="16.906861"
       height="16.906861"
       id="rect848" />
  </defs>
  <sodipodi:namedview
     id="base"
     pagecolor="#ffffff"
     bordercolor="#666666"
     borderopacity="1.0"
     inkscape:pageopacity="0.0"
     inkscape:pageshadow="2"
     inkscape:zoom="8"
     inkscape:cx="47.332375"
     inkscape:cy="42.125164"
     inkscape:document-units="mm"
     inkscape:current-layer="layer1"
     inkscape:document-rotation="0"
     showgrid="false"
     units="px"
     inkscape:window-width="1920"
     inkscape:window-height="1017"
     inkscape:window-x="-8"
     inkscape:window-y="-8"
     inkscape:window-maximized="1"
     inkscape:snap-global="true" />
  <metadata
     id="metadata5">
    <rdf:RDF>
      <cc:Work
         rdf:about="">
        <dc:format>image/svg+xml</dc:format>
        <dc:type
           rdf:resource="http://purl.org/dc/dcmitype/StillImage" />
        <dc:title></dc:title>
      </cc:Work>
    </rdf:RDF>
  </metadata>
  <g
     inkscape:label="Layer 1"
     inkscape:groupmode="layer"
     id="layer1">
    <rect
       ry="3.1618264"
       y="9.6346028e-08"
       x="-1.3877788e-17"
       height="16.933332"
       width="16.933332"
       id="rect1090"
       style="fill:#5380f7;fill-opacity:1;stroke-width:0.012797;stroke-linecap:round;stroke-linejoin:round" />
    <g
       transform="translate(0,-1.0583333)"
       id="g2818">
      <path
         style="fill:#ffffff;fill-opacity:1;stroke:#5380f7;stroke-width:0.285362;stroke-opacity:1"
         d="m 5.018286,3.3283167 c -1.5752033,0 -2.8536301,1.278426 -2.8536301,2.8536297 0,1.5752035 1.2784268,2.8536302 2.8536301,2.8536302 1.5752038,0 2.8536295,-1.2784267 2.8536295,-2.8536302 0,-1.5752037 -1.2784257,-2.8536297 -2.8536295,-2.8536297 z"
         id="path4" />
      <path
         style="fill:#5380f7;fill-opacity:1;stroke:none;stroke-width:0.285362;stroke-opacity:1"
         d="M 6.7019272,7.720053 C 6.6277335,7.4889088 6.4165647,7.3233982 6.1597378,7.3233982 H 5.8743753 V 6.4673095 c 0,-0.1569501 -0.1284142,-0.2853631 -0.2853638,-0.2853631 H 3.8768337 V 5.6112203 H 4.44756 c 0.1569496,0 0.2853625,-0.1284133 0.2853625,-0.2853629 v -0.570726 h 0.5707266 c 0.3138996,0 0.5707262,-0.2568266 0.5707262,-0.5707258 V 4.0674067 c 0.8361135,0.339582 1.426814,1.1585736 1.426814,2.1145397 0,0.5935548 -0.2282897,1.1328907 -0.5992621,1.5381066 z"
         id="path2813" />
      <path
         style="fill:#5380f7;fill-opacity:1;stroke:none;stroke-width:0.285362;stroke-opacity:1"
         d="M 4.7329225,8.4448749 C 3.6057391,8.3050464 2.7353823,7.3462272 2.7353823,6.1819464 c 0,-0.1769251 0.022833,-0.3452892 0.059924,-0.5107999 l 1.3668882,1.3668886 v 0.2853631 c 0,0.313899 0.2568264,0.5707258 0.570725,0.5707258 z"
         id="path2811" />
    </g>
    <path
       sodipodi:nodetypes="ccccscccc"
       d="M 4.9167289,9.2399999 4.0914565,10.040468 H 0.13229153 V 14.46926 C 0.4903565,15.822896 1.7160567,16.816403 3.1853351,16.816403 H 13.49375 V 10.040468 H 5.7420017 Z"
       style="fill:#ffffff;fill-opacity:1;stroke:#4d4d4d;stroke-width:0.264583px;stroke-linecap:butt;stroke-linejoin:miter;stroke-opacity:1"
       id="path2759" />
    <rect
       ry="0.45943028"
       y="11.854793"
       x="1.9606994"
       height="0.91886055"
       width="9.7092924"
       id="rect2788"
       style="fill:#4d4d4d;fill-opacity:1;stroke:none;stroke-width:0.00842271;stroke-linecap:round;stroke-linejoin:round;stroke-opacity:1" />
    <rect
       style="fill:#5380f7;fill-opacity:1;stroke:none;stroke-width:0.00758384;stroke-linecap:round;stroke-linejoin:round;stroke-opacity:1"
       id="rect2788-0"
       width="7.871572"
       height="0.91886055"
       x="3.7984211"
       y="14.083301"
       ry="0.45943028" />
    <g
       transform="translate(21.094247,-0.403523)"
       id="g3050">
      <path
         id="path2980"
         style="fill:none;fill-opacity:1;stroke:#ffffff;stroke-width:1.99937;stroke-linecap:round;stroke-linejoin:round;stroke-miterlimit:4;stroke-dasharray:none;stroke-opacity:1"
         d="m -41.462938,10.520051 a 17.140142,17.140142 0 0 1 3.537144,10.427986 v 0 a 17.140142,17.140142 0 0 1 -3.898025,10.882591"
         transform="scale(0.26458333)" />
      <path
         id="path2980-9"
         style="fill:none;fill-opacity:1;stroke:#ffffff;stroke-width:1.99937;stroke-linecap:round;stroke-linejoin:round;stroke-miterlimit:4;stroke-dasharray:none;stroke-opacity:1"
         d="m -46.137028,14.049721 a 11.283271,11.283271 0 0 1 2.354361,6.898316 v 0 a 11.283271,11.283271 0 0 1 -2.562319,7.159413"
         transform="scale(0.26458333)" />
      <path
         id="path2980-6"
         style="fill:none;fill-opacity:1;stroke:#ffffff;stroke-width:1.99937;stroke-linecap:round;stroke-linejoin:round;stroke-miterlimit:4;stroke-dasharray:none;stroke-opacity:1"
         d="m -36.734101,6.9472744 a 23.066807,23.066807 0 0 1 4.734971,14.0007616 v 0 a 23.066807,23.066807 0 0 1 -5.247612,14.647657"
         transform="scale(0.26458333)" />
    </g>
  </g>
</svg>

<svg width="64" height="64" version="1.1" viewBox="0 0 16.9 16.9" xmlns="http://www.w3.org/2000/svg">
 <rect x="-1.39e-17" y="9.63e-8" width="16.9" height="16.9" ry="3.16" fill="#5380f7" stroke-linecap="round" stroke-linejoin="round" stroke-width=".0128"/>
 <g transform="translate(0 -1.06)">
  <path d="m5.02 3.33c-1.58 0-2.85 1.28-2.85 2.85 0 1.58 1.28 2.85 2.85 2.85 1.58 0 2.85-1.28 2.85-2.85 0-1.58-1.28-2.85-2.85-2.85z" fill="#fff" stroke="#5380f7" stroke-width=".285"/>
  <path d="m6.7 7.72c-.0742-.231-.285-.397-.542-.397h-.285v-.856c0-.157-.128-.285-.285-.285h-1.71v-.571h.571c.157 0 .285-.128.285-.285v-.571h.571c.314 0 .571-.257.571-.571v-.117c.836.34 1.43 1.16 1.43 2.11 0 .594-.228 1.13-.599 1.54z" fill="#5380f7"/>
  <path d="m4.73 8.44c-1.13-.14-2-1.1-2-2.26 0-.177.0228-.345.0599-.511l1.37 1.37v.285c0 .314.257.571.571.571z" fill="#5380f7"/>
 </g>
 <path d="m4.92 9.24-.825.8h-3.96v4.43c.358 1.35 1.58 2.35 3.05 2.35h10.3v-6.78h-7.75z" fill="#fff" stroke="#4d4d4d" stroke-width=".265px"/>
 <rect x="1.96" y="11.9" width="9.71" height=".919" ry=".459" fill="#4d4d4d"/>
 <rect x="3.8" y="14.1" width="7.87" height=".919" ry=".459" fill="#5380f7"/>
 <g transform="translate(21.1 -.404)" fill="none" stroke="#fff" stroke-linecap="round" stroke-linejoin="round" stroke-width="2">
  <path transform="scale(.265)" d="m-41.5 10.5a17.1 17.1 0 013.54 10.4 17.1 17.1 0 01-3.9 10.9"/>
  <path transform="scale(.265)" d="m-46.1 14a11.3 11.3 0 012.35 6.9 11.3 11.3 0 01-2.56 7.16"/>
  <path transform="scale(.265)" d="m-36.7 6.95a23.1 23.1 0 014.73 14 23.1 23.1 0 01-5.25 14.6"/>
 </g>
</svg>
